6-data-storage/03-indexeddb/indexeddb-index.svg

<?xml version="1.0" encoding="UTF-8"?>
<svg width="440px" height="289px" viewBox="0 0 440 289" version="1.1" xmlns="http://www.w3.org/2000/svg" xmlns:xlink="http://www.w3.org/1999/xlink">
    <!-- Generator: sketchtool 61.2 (101010) - https://sketch.com -->
    <title>indexeddb-index.svg</title>
    <desc>Created with sketchtool.</desc>
    <g id="data-storage" stroke="none" stroke-width="1" fill="none" fill-rule="evenodd">
        <g id="indexeddb-index.svg">
            <path d="M17,43 L17,101 L124,101 L124,43 L17,43 Z" id="Rectangle-1" stroke="#E8C48E" stroke-width="2" fill="#FFF9EB"></path>
            <path d="M17,43 L17,101 L130,101 L130,43 L17,43 Z" id="Rectangle-1-Copy" stroke="#E8C48E" stroke-width="2" fill="#FFF9EB"></path>
            <text id="id:-'html'-price:-3" font-family="PTMono-Regular, PT Mono" font-size="14" font-weight="normal" fill="#8A704D">
                <tspan x="27" y="66">id: 'html'</tspan>
                <tspan x="27" y="81">price: 3</tspan>
            </text>
            <path d="M17,101 L17,159 L130,159 L130,101 L17,101 Z" id="Rectangle-1-Copy-2" stroke="#E8C48E" stroke-width="2" fill="#FFF9EB"></path>
            <text id="id:-'css'-price:-5" font-family="PTMono-Regular, PT Mono" font-size="14" font-weight="normal" fill="#8A704D">
                <tspan x="27" y="124">id: 'css'</tspan>
                <tspan x="27" y="139">price: 5</tspan>
            </text>
            <text id="3:-['html']-5:-['css" font-family="PTMono-Regular, PT Mono" font-size="16" font-weight="normal" line-spacing="30" fill="#8A704D">
                <tspan x="245" y="57">3:  ['html']</tspan>
                <tspan x="245" y="87">5:  ['css']</tspan>
                <tspan x="245" y="117">10: ['js','nodejs']</tspan>
            </text>
            <path d="M17,159 L17,217 L130,217 L130,159 L17,159 Z" id="Rectangle-1-Copy-3" stroke="#E8C48E" stroke-width="2" fill="#FFF9EB"></path>
            <text id="id:-'js'-price:-10" font-family="PTMono-Regular, PT Mono" font-size="14" font-weight="normal" fill="#8A704D">
                <tspan x="27" y="182">id: 'js'</tspan>
                <tspan x="27" y="197">price: 10</tspan>
            </text>
            <path d="M17,217 L17,275 L130,275 L130,217 L17,217 Z" id="Rectangle-1-Copy-4" stroke="#E8C48E" stroke-width="2" fill="#FFF9EB"></path>
            <text id="id:-'nodejs'-price:" font-family="PTMono-Regular, PT Mono" font-size="14" font-weight="normal" fill="#8A704D">
                <tspan x="27" y="240">id: 'nodejs'</tspan>
                <tspan x="27" y="255">price: 10</tspan>
            </text>
            <text id="books" font-family="Helvetica" font-size="18" font-weight="normal" fill="#8A704D">
                <tspan x="16" y="30">books</tspan>
            </text>
            <text id="index" font-family="Helvetica" font-size="18" font-weight="normal" fill="#8A704D">
                <tspan x="245" y="30">index</tspan>
            </text>
            <path id="Line" d="M223.5,49.5 L237.5,56.5 L223.5,63.5 L223.5,57.5 L220.5,57.5 L220.5,55.5 L223.5,55.5 L223.5,49.5 Z M216.5,55.5 L216.5,57.5 L211.5,57.5 L211.5,55.5 L216.5,55.5 Z M207.5,55.5 L207.5,57.5 L202.5,57.5 L202.5,55.5 L207.5,55.5 Z M198.5,55.5 L198.5,57.5 L193.5,57.5 L193.5,55.5 L198.5,55.5 Z M189.5,55.5 L189.5,57.5 L184.5,57.5 L184.5,55.5 L189.5,55.5 Z M180.5,55.5 L180.5,57.5 L175.5,57.5 L175.5,55.5 L180.5,55.5 Z M171.5,55.5 L171.5,57.5 L166.5,57.5 L166.5,55.5 L171.5,55.5 Z M162.5,55.5 L162.5,57.5 L157.5,57.5 L157.5,55.5 L162.5,55.5 Z M153.5,55.5 L153.5,57.5 L148.5,57.5 L148.5,55.5 L153.5,55.5 Z M144.5,55.5 L144.5,57.5 L139.5,57.5 L139.5,55.5 L144.5,55.5 Z" fill="#EE6B47" fill-rule="nonzero"></path>
            <path id="Line-Copy" d="M141.258452,119.009643 L141.934597,120.891883 L140.993477,121.229955 L138.170116,122.244172 L137.228996,122.582245 L136.552852,120.700004 L137.493972,120.361932 L140.317332,119.347715 L141.258452,119.009643 Z M149.728534,115.966992 L150.404678,117.849233 L145.699078,119.539594 L145.022933,117.657354 L145.964053,117.319281 L148.787414,116.305065 L149.728534,115.966992 Z M158.198615,112.924342 L158.87476,114.806582 L154.169159,116.496943 L153.493014,114.614703 L158.198615,112.924342 Z M166.668696,109.881691 L167.344841,111.763931 L166.403721,112.102004 L162.63924,113.454293 L161.963096,111.572053 L162.904216,111.23398 L166.668696,109.881691 Z M175.138778,106.839041 L175.814922,108.721281 L171.109321,110.411642 L170.433177,108.529402 L175.138778,106.839041 Z M183.608859,103.79639 L184.285004,105.67863 L183.343883,106.016703 L179.579403,107.368992 L178.903258,105.486751 L183.608859,103.79639 Z M192.07894,100.753739 L192.755085,102.63598 L191.813965,102.974052 L188.049484,104.326341 L187.37334,102.444101 L188.31446,102.106029 L191.13782,101.091812 L192.07894,100.753739 Z M200.549022,97.7110889 L201.225166,99.5933291 L200.284046,99.9314014 L197.460686,100.945618 L196.519565,101.283691 L195.843421,99.4014503 L199.607901,98.0491611 L200.549022,97.7110889 Z M209.019103,94.6684383 L209.695247,96.5506786 L208.754127,96.8887509 L205.930767,97.9029677 L204.989647,98.24104 L204.313502,96.3587997 L208.077983,95.0065106 L209.019103,94.6684383 Z M221.957812,83.645171 L237.5,85.5 L226.690824,96.820853 L224.662,91.174 L222.87093,91.8176666 L221.929809,92.1557389 L221.253665,90.2734986 L222.194785,89.9354263 L223.986,89.292 L221.957812,83.645171 Z M217.489184,91.6257877 L218.165329,93.508028 L217.224209,93.8461003 L214.400848,94.8603171 L213.459728,95.1983894 L212.783583,93.3161491 L213.724704,92.9780769 L216.548064,91.96386 L217.489184,91.6257877 Z" fill="#EE6B47" fill-rule="nonzero"></path>
            <path id="Line-Copy-2" d="M144.508451,164.175385 L145.344263,165.992366 L144.435772,166.410272 L141.710301,167.663989 L140.80181,168.081894 L139.965999,166.264913 L140.87449,165.847008 L143.599961,164.593291 L144.508451,164.175385 Z M152.684865,160.414235 L153.520677,162.231216 L152.612186,162.649121 L149.886715,163.902838 L148.978224,164.320744 L148.142413,162.503763 L149.050904,162.085857 L151.776375,160.83214 L152.684865,160.414235 Z M160.86128,156.653084 L161.697091,158.470065 L160.7886,158.887971 L158.063129,160.141688 L157.154638,160.559593 L156.318827,158.742612 L157.227318,158.324707 L159.952789,157.07099 L160.86128,156.653084 Z M169.037694,152.891934 L169.873505,154.708915 L168.965014,155.12682 L166.239543,156.380537 L165.331053,156.798443 L164.495241,154.981462 L165.403732,154.563556 L168.129203,153.30984 L169.037694,152.891934 Z M177.214108,149.130783 L178.049919,150.947764 L177.141428,151.36567 L174.415957,152.619387 L173.507467,153.037292 L172.671655,151.220311 L173.580146,150.802406 L176.305617,149.548689 L177.214108,149.130783 Z M185.390522,145.369633 L186.226333,147.186614 L185.317843,147.604519 L182.592371,148.858236 L181.683881,149.276142 L180.848069,147.459161 L181.75656,147.041255 L184.482031,145.787539 L185.390522,145.369633 Z M193.566936,141.608482 L194.402747,143.425463 L193.494257,143.843369 L190.768785,145.097086 L189.860295,145.514991 L189.024484,143.698011 L189.932974,143.280105 L192.658445,142.026388 L193.566936,141.608482 Z M201.74335,137.847332 L202.579161,139.664313 L201.670671,140.082219 L198.945199,141.335935 L198.036709,141.753841 L197.200898,139.93686 L198.109388,139.518954 L200.834859,138.265238 L201.74335,137.847332 Z M209.919764,134.086182 L210.755575,135.903162 L209.847085,136.321068 L207.121613,137.574785 L206.213123,137.99269 L205.377312,136.17571 L206.285802,135.757804 L209.011274,134.504087 L209.919764,134.086182 Z M221.855794,121.991245 L237.5,122.5 L227.706473,134.710112 L225.198,129.259 L223.474442,130.052484 L222.565951,130.47039 L221.73014,128.653409 L222.63863,128.235503 L224.362,127.442 L221.855794,121.991245 Z M218.096178,130.325031 L218.931989,132.142012 L218.023499,132.559918 L215.298027,133.813634 L214.389537,134.23154 L213.553726,132.414559 L214.462216,131.996653 L217.187688,130.742937 L218.096178,130.325031 Z" fill="#EE6B47" fill-rule="nonzero"></path>
            <path id="Line-Copy-3" d="M143.314945,221.096491 L144.692444,222.54649 L143.967445,223.235239 L141.792446,225.301487 L141.067447,225.990237 L139.689948,224.540238 L140.414947,223.851488 L142.589946,221.78524 L143.314945,221.096491 Z M149.83994,214.897745 L151.217439,216.347744 L150.49244,217.036494 L148.317441,219.102742 L147.592442,219.791492 L146.214943,218.341493 L146.939942,217.652743 L149.114941,215.586495 L149.83994,214.897745 Z M156.364935,208.699 L157.742434,210.148999 L157.017434,210.837749 L154.842436,212.903997 L154.117437,213.592746 L152.739938,212.142748 L153.464937,211.453998 L155.639936,209.38775 L156.364935,208.699 Z M162.88993,202.500255 L164.267429,203.950254 L163.542429,204.639003 L161.367431,206.705252 L160.642432,207.394001 L159.264933,205.944002 L159.989932,205.255253 L162.16493,203.189005 L162.88993,202.500255 Z M169.414925,196.30151 L170.792424,197.751509 L170.067424,198.440258 L167.892426,200.506507 L167.167427,201.195256 L165.789928,199.745257 L166.514927,199.056508 L168.689925,196.990259 L169.414925,196.30151 Z M175.93992,190.102765 L177.317419,191.552764 L176.592419,192.241513 L174.417421,194.307762 L173.692421,194.996511 L172.314923,193.546512 L173.039922,192.857763 L175.21492,190.791514 L175.93992,190.102765 Z M182.464915,183.90402 L183.842414,185.354019 L183.117414,186.042768 L180.942416,188.109016 L180.217416,188.797766 L178.839917,187.347767 L179.564917,186.659018 L181.739915,184.592769 L182.464915,183.90402 Z M188.98991,177.705275 L190.367408,179.155273 L189.642409,179.844023 L187.467411,181.910271 L186.742411,182.599021 L185.364912,181.149022 L186.089912,180.460272 L188.26491,178.394024 L188.98991,177.705275 Z M195.514904,171.506529 L196.892403,172.956528 L196.167404,173.645278 L193.992406,175.711526 L193.267406,176.400276 L191.889907,174.950277 L192.614907,174.261527 L194.789905,172.195279 L195.514904,171.506529 Z M202.039899,165.307784 L203.417398,166.757783 L202.692399,167.446533 L200.517401,169.512781 L199.792401,170.20153 L198.414902,168.751532 L199.139902,168.062782 L201.3149,165.996534 L202.039899,165.307784 Z M208.564894,159.109039 L209.942393,160.559038 L209.217394,161.247787 L207.042395,163.314036 L206.317396,164.002785 L204.939897,162.552786 L205.664896,161.864037 L207.839895,159.797789 L208.564894,159.109039 Z M215.089889,152.910294 L216.467388,154.360293 L215.742389,155.049042 L213.56739,157.115291 L212.842391,157.80404 L211.464892,156.354041 L212.189891,155.665292 L214.36489,153.599043 L215.089889,152.910294 Z M221.614884,146.711549 L222.992383,148.161548 L222.267384,148.850297 L220.092385,150.916545 L219.367386,151.605295 L217.989887,150.155296 L218.714886,149.466547 L220.889885,147.400298 L221.614884,146.711549 Z M237.5,133 L232.171254,147.717489 L228.038,143.367 L226.61738,144.7178 L225.892381,145.40655 L224.514882,143.956551 L225.239881,143.267801 L226.66,141.917 L222.528762,137.567496 L237.5,133 Z" fill="#EE6B47" fill-rule="nonzero"></path>
        </g>
    </g>
</svg>

<svg xmlns="http://www.w3.org/2000/svg" width="440" height="289" viewBox="0 0 440 289"><defs><style>@import url(https://fonts.googleapis.com/css?family=Open+Sans:bold,italic,bolditalic%7CPT+Mono);@font-face{font-family:&apos;PT Mono&apos;;font-weight:700;font-style:normal;src:local(&apos;PT MonoBold&apos;),url(/font/PTMonoBold.woff2) format(&apos;woff2&apos;),url(/font/PTMonoBold.woff) format(&apos;woff&apos;),url(/font/PTMonoBold.ttf) format(&apos;truetype&apos;)}</style></defs><g id="data-storage" fill="none" fill-rule="evenodd" stroke="none" stroke-width="1"><g id="indexeddb-index.svg"><path id="Rectangle-1" fill="#FBF2EC" stroke="#DBAF88" stroke-width="2" d="M124 43v58H17V43h107z"/><path id="Rectangle-1-Copy" fill="#FBF2EC" stroke="#DBAF88" stroke-width="2" d="M130 43v58H17V43h113z"/><text id="id:-'html'-price:-3" fill="#AF6E24" font-family="PTMono-Regular, PT Mono" font-size="14" font-weight="normal"><tspan x="27" y="66">id: &apos;html&apos;</tspan> <tspan x="27" y="81">price: 3</tspan></text><path id="Rectangle-1-Copy-2" fill="#FBF2EC" stroke="#DBAF88" stroke-width="2" d="M130 101v58H17v-58h113z"/><text id="id:-'css'-price:-5" fill="#AF6E24" font-family="PTMono-Regular, PT Mono" font-size="14" font-weight="normal"><tspan x="27" y="124">id: &apos;css&apos;</tspan> <tspan x="27" y="139">price: 5</tspan></text><text id="3:-['html']-5:-['css" fill="#AF6E24" font-family="PTMono-Regular, PT Mono" font-size="16" font-weight="normal"><tspan x="245" y="57">3: [&apos;html&apos;]</tspan> <tspan x="245" y="87">5: [&apos;css&apos;]</tspan> <tspan x="245" y="117">10: [&apos;js&apos;,&apos;nodejs&apos;]</tspan></text><path id="Rectangle-1-Copy-3" fill="#FBF2EC" stroke="#DBAF88" stroke-width="2" d="M130 159v58H17v-58h113z"/><text id="id:-'js'-price:-10" fill="#AF6E24" font-family="PTMono-Regular, PT Mono" font-size="14" font-weight="normal"><tspan x="27" y="182">id: &apos;js&apos;</tspan> <tspan x="27" y="197">price: 10</tspan></text><path id="Rectangle-1-Copy-4" fill="#FBF2EC" stroke="#DBAF88" stroke-width="2" d="M130 217v58H17v-58h113z"/><text id="id:-'nodejs'-price:" fill="#AF6E24" font-family="PTMono-Regular, PT Mono" font-size="14" font-weight="normal"><tspan x="27" y="240">id: &apos;nodejs&apos;</tspan> <tspan x="27" y="255">price: 10</tspan></text><text id="books" fill="#AF6E24" font-family="OpenSans-Regular, Open Sans" font-size="18" font-weight="normal"><tspan x="16" y="31">books</tspan></text><text id="index" fill="#AF6E24" font-family="OpenSans-Regular, Open Sans" font-size="18" font-weight="normal"><tspan x="245" y="31">index</tspan></text><path id="Line" fill="#C06334" fill-rule="nonzero" d="M223.5 49.5l14 7-14 7v-6h-3v-2h3v-6zm-7 6v2h-5v-2h5zm-9 0v2h-5v-2h5zm-9 0v2h-5v-2h5zm-9 0v2h-5v-2h5zm-9 0v2h-5v-2h5zm-9 0v2h-5v-2h5zm-9 0v2h-5v-2h5zm-9 0v2h-5v-2h5zm-9 0v2h-5v-2h5z"/><path id="Line-Copy" fill="#C06334" fill-rule="nonzero" d="M141.258 119.01l.677 1.882-.942.338-2.823 1.014-.941.338-.676-1.882.941-.338 2.823-1.014.941-.338zm8.47-3.043l.677 1.882-4.706 1.69-.676-1.882.941-.338 2.823-1.014.942-.338zm8.47-3.043l.677 1.883-4.706 1.69-.676-1.882 4.706-1.69zm8.47-3.042l.677 1.882-.941.338-3.765 1.352-.676-1.882.941-.338 3.765-1.352zm8.47-3.043l.677 1.882-4.706 1.69-.676-1.882 4.706-1.69zm8.47-3.043l.677 1.883-.941.338-3.765 1.352-.676-1.882 4.706-1.69zm8.47-3.042l.677 1.882-.941.338-3.765 1.352-.676-1.882.941-.338 2.824-1.014.94-.338zm8.471-3.043l.676 1.882-.941.338-2.823 1.015-.941.338-.677-1.883 3.765-1.352.941-.338zm8.47-3.043l.676 1.883-.94.338-2.824 1.014-.941.338-.676-1.882 3.764-1.352.941-.339zm12.939-11.023L237.5 85.5l-10.81 11.32-2.028-5.646-1.791.644-.941.338-.676-1.883.94-.338 1.792-.643-2.028-5.647zm-4.469 7.98l.676 1.883-.94.338-2.824 1.014-.941.338-.676-1.882.94-.338 2.824-1.014.941-.338z"/><path id="Line-Copy-2" fill="#C06334" fill-rule="nonzero" d="M144.508 164.175l.836 1.817-.908.418-2.726 1.254-.908.418-.836-1.817.908-.418 2.726-1.254.908-.418zm8.177-3.76l.836 1.816-.909.418-2.725 1.254-.909.418-.836-1.817.909-.418 2.725-1.254.909-.418zm8.176-3.762l.836 1.817-.908.418-2.726 1.254-.908.418-.836-1.817.908-.418 2.726-1.254.908-.418zm8.177-3.761l.836 1.817-.909.418-2.725 1.254-.909.417-.836-1.817.909-.417 2.725-1.254.909-.418zm8.176-3.761l.836 1.817-.909.418-2.725 1.253-.909.418-.835-1.817.908-.418 2.726-1.253.908-.418zm8.177-3.761l.835 1.817-.908.418-2.726 1.253-.908.418-.836-1.817.909-.418 2.725-1.253.909-.418zm8.176-3.762l.836 1.817-.909.418-2.725 1.254-.909.418-.836-1.817.909-.418 2.725-1.254.909-.418zm8.176-3.76l.836 1.816-.908.418-2.726 1.254-.908.418-.836-1.817.908-.418 2.726-1.254.908-.418zm8.177-3.762l.836 1.817-.909.418-2.725 1.254-.909.418-.836-1.817.909-.418 2.725-1.254.909-.418zm11.936-12.095l15.644.509-9.794 12.21-2.508-5.451-1.724.793-.908.418-.836-1.817.909-.417 1.723-.794-2.506-5.45zm-3.76 8.334l.836 1.817-.909.418-2.725 1.254-.908.418-.836-1.817.908-.418 2.726-1.254.908-.418z"/><path id="Line-Copy-3" fill="#C06334" fill-rule="nonzero" d="M143.315 221.096l1.377 1.45-.725.69-2.175 2.065-.725.69-1.377-1.45.725-.69 2.175-2.066.725-.689zm6.525-6.198l1.377 1.45-.725.688-2.175 2.067-.725.688-1.377-1.45.725-.688 2.175-2.067.725-.688zm6.525-6.199l1.377 1.45-.725.689-2.175 2.066-.725.689-1.377-1.45.725-.689 2.175-2.066.725-.689zm6.525-6.199l1.377 1.45-.725.689-2.175 2.066-.725.689-1.377-1.45.725-.689 2.175-2.066.725-.689zm6.525-6.198l1.377 1.45-.725.688-2.175 2.067-.725.688-1.377-1.45.725-.688 2.175-2.067.725-.688zm6.525-6.2l1.377 1.45-.725.69-2.175 2.066-.725.689-1.377-1.45.725-.69 2.175-2.065.725-.69zm6.525-6.198l1.377 1.45-.725.689-2.175 2.066-.725.689-1.377-1.45.725-.689 2.175-2.066.725-.689zm6.525-6.199l1.377 1.45-.725.689-2.175 2.066-.725.689-1.377-1.45.725-.689 2.175-2.066.725-.689zm6.525-6.198l1.377 1.45-.725.688-2.175 2.067-.725.688-1.377-1.45.725-.688 2.175-2.067.725-.688zm6.525-6.2l1.377 1.45-.725.69-2.175 2.066-.725.689-1.377-1.45.725-.69 2.175-2.065.725-.69zm6.525-6.198l1.377 1.45-.725.689-2.175 2.066-.725.689-1.377-1.45.725-.689 2.175-2.066.725-.689zm6.525-6.199l1.377 1.45-.725.689-2.175 2.066-.725.689-1.377-1.45.725-.689 2.175-2.066.725-.689zm6.525-6.198l1.377 1.45-.725.688-2.175 2.067-.725.688-1.377-1.45.725-.688 2.175-2.067.725-.688zM237.5 133l-5.329 14.717-4.133-4.35-1.42 1.35-.726.69-1.377-1.45.725-.69 1.42-1.35-4.131-4.35L237.5 133z"/></g></g></svg>
